X:1
T:Sing the Love of Jesus
T:Sing the Love of Jesus
T:Charles Hutchinson Gabriel
T:Harriet E. Rice Jones, 1895
T:Public Domain Courtesy of the Cyber Hymnal™
T:Public Domain Courtesy of the Cyber Hymnal™
C:Charles Hutchinson Gabriel
Z:Public Domain
Z:Courtesy of the Cyber Hymnal™
%%score ( 1 2 ) ( 3 4 )
L:1/8
Q:1/4=113
M:9/8
K:Ab
V:1 treble 
V:2 treble 
V:3 bass 
V:4 bass 
V:1
 [CE]2 [CE] | [CA]3- [CA]2 [CA] (cB)[EA] | [EB]3 [EB]3 (Bc)[Ed] | [Ec]2 [FB] [EA]3 [DG]3 | %4
w: 1.~Sing, O|sing, * the dear * old|sto- ry Of * our|Sav- ior’s match- less|
w: 2.~Sing of|love * to you * so|pre- cious, Tell, * in|song, how Je- sus|
w: 3.~Ye re-|deemed * ones, sing * the|sto- ry! Sing * it|o’er and o’er a-|
 [CA]3- [CA]2 z [CE]2 [CE] | [CA]3- [CA]2 [CA] (cB)[EA] | [EB]3 [EB]3 (Bc)[Ed] | %7
w: love; * Sing of|Je- * sus and * His|glo- ry With * the|
w: died; * Let sweet|mu- * sic draw * the|mill- ions To * the|
w: gain, * Un- til|ev- * ery tribe * and|na- tion Join * to|
 [Ec]2 [FB] [EA]3 [DG]3 | [CA]3- [CA]2 z ||"^Refrain" [Ee]2 [Ee] | e3- (eB)[Ac] ([Bd][Ac])[GB] | %11
w: ran- somed host a-|bove. *|Sing, O|sing * * the love * of|
w: dear Re- deem- er’s|side. *|||
w: sing the glad re-|frain. *|||
 c3 A3 [Ee]2 [Ee] | e3- (eB)[Ac] ([Bd][Ac])[GB] | c3- [Ac]2 z c2 B | A3- [FA]2 [FB] [FA]2 [DF] | %15
w: Je- sus— Sound His|prais- * * es far * and|near; Sing the won-|* drous sto- ry o-|
w: ||||
w: ||||
 [CE]3 [EA]3 c2 d | e3- [Ae]2 [Bd] !fermata![Ac]2 [EB] | [EA]3- [EA]2 z |] %18
w: * ver, ’Till the|whole wide world shall hear.||
w: |||
w: |||
V:2
 x3 | x6 E2 x | x6 E2 x | x9 | x9 | x6 E2 x | x6 E2 x | x9 | x6 || x3 | (G2 G G2) x4 | %11
 (A2 A) (E2 E) x3 | (G2 G G2) x4 | A2 A x6 | F2 F x6 | x9 | A2 A x6 | x6 |] %18
V:3
 [A,,A,]2 [A,,A,] | [A,,E,]3- [A,,E,]2 [A,,E,] ([A,,A,][B,,G,])[C,A,] | %2
w: ~ ~|~ * ~ ~ * ~|
 [E,G,]3 [E,G,]3 (G,A,)[E,B,] | A,2 [D,D] [E,C]3 [E,B,]3 | [A,,A,]3- [A,,A,]2 z [A,,A,]2 [A,,A,] | %5
w: ~ ~ ~ * ~|~ ~ ~ ~|~ * ~ ~|
 [A,,E,]3- [A,,E,]2 [A,,E,] ([A,,A,][B,,G,])[C,A,] | [E,G,]3 [E,G,]3 (G,A,)[E,B,] | %7
w: ~ * ~ ~ * ~|~ ~ ~ * ~|
 A,2 [D,D] [E,C]3 [E,B,]3 | [A,,A,]3- [A,,A,]2 z || z3 | %10
w: ~ ~ ~ ~|~ *||
 [E,B,]2 [E,B,] [E,B,]2 [E,E] [E,E]2 [E,E] | [A,E]2 [A,E] [A,C]2 [A,C] z3 | %12
w: Sing, O sing the love, the|love of Je- sus,|
 [E,B,]2 [E,B,] [E,B,]2 [E,E] [E,E]2 [E,E] | [A,,E]2 [A,,E] [A,,E]2 z4 | %14
w: Sound His prais- es, prais- es|far and near,|
 [D,D]2 [D,D] [D,D]2 [D,D] [D,D]2 [D,A,] | [A,,A,]3 [A,,C]3 z3 | %16
w: Sing the won- drous sto- ry|o- ver,|
 [E,C]2 [E,C] [E,C]2 [E,E] !fermata![E,E]2 [E,D] | [A,,C]3- [A,,C]2 z |] %18
w: ’Till the whole wide world shall|hear. *|
V:4
 x3 | x9 | x6 E,2 x | A,2 x7 | x9 | x9 | x6 E,2 x | A,2 x7 | x6 || x3 | x9 | x9 | x9 | x9 | x9 | %15
 x9 | x9 | x6 |] %18

